**kern	**kern
*staff2	*staff1
*clefG2	*clefG2
*k[f#c#g#]	*k[f#c#g#]
*M2/4	*M2/4
*A:	*A:
=-	=-
8r	8ee
=177	=177
8r	(16dd#LL
.	16ee
(8e	16ff#
.	16eeJJ)
8cc#L	8eee'L
8a#J	([8eeeJ
=178	=178
8bL	8eeeL]
8ddJ	8dddJ
8g#)	8bbL)
8r	8eeJ
=179	=179
8r	(16dd#LL
.	16ee
(8an	16ff#
.	16eeJJ)
8cc#L	8eee'L
8a#J	([8eeeJ
=180	=180
8bL	8eeeL]
8ddJ	8dddJ
8g#)	8bbL)
8r	8eeJ
=181	=181
4r	(16dd#LL
.	16ee
.	16ff#
.	16eeJJ)
4a 4cc#	8r
.	8aa
=182	=182
4r	(16gg#LL
.	16aa
.	16bb
.	16aaJJ)
4f# 4a	8r
.	8ccc#
=183	=183
4r	(16ddd#LL
.	16eee
.	16ddd#
.	16eeeJJ)
8eL 8a 8cc#	8r
8eJ 8g# 8b	8eee
=184	=184
8aL	4aa
8eJ	.
8A	8r
=	=
*-	*-
